flags/arizona.svg

<?xml version="1.0" encoding="UTF-8"?>
<svg xmlns="http://www.w3.org/2000/svg" xmlns:xlink="http://www.w3.org/1999/xlink" height="600" width="900">
  <path fill="#002868" d="M0 0h900v600H0z"/>
  <path d="M0-.00001801h900V300H0z" fill="#bf0a30"/>
  <path d="M0 195.33L450 300 0 70.319673z" fill="#f0f"/>
  <path id="a" d="M0 195.33L450 300 0 70.319673z" fill="#fed700"/>
  <path id="b" d="M103.14.00006L450 300 232.83 9.9e-7z" fill="#fed700"/>
  <path id="c" d="M332.82.00006L450 300 407.79 9.9e-7z" fill="#fed700"/>
  <use xlink:href="#a" transform="matrix(-1 0 0 1 900 0)"/>
  <use xlink:href="#b" transform="matrix(-1 0 0 1 900 0)"/>
  <use xlink:href="#c" transform="matrix(-1 0 0 1 900 0)"/>
  <path d="M450.00046 148.63814L547.53188 448.809 292.1913 263.2932h315.6183L352.46902 448.809z" fill="#ce5c17"/>
</svg>

<svg height="600" width="900" xmlns="http://www.w3.org/2000/svg" xmlns:xlink="http://www.w3.org/1999/xlink"><path d="m0 0h900v600h-900z" fill="#002868"/><path d="m0 0h900v300h-900z" fill="#bf0a30"/><path d="m0 195.33 450 104.67-450-229.68z" fill="#f0f"/><path id="a" d="m0 195.33 450 104.67-450-229.68z" fill="#fed700"/><path id="b" d="m103.14 0 346.86 300-217.17-300z" fill="#fed700"/><path id="c" d="m332.82 0 117.18 300-42.21-300z" fill="#fed700"/><g transform="matrix(-1 0 0 1 900 0)"><use xlink:href="#a"/><use xlink:href="#b"/><use xlink:href="#c"/></g><path d="m450 148.638 97.532 300.171-255.34-185.516h315.618l-255.341 185.517z" fill="#ce5c17"/></svg>
